X:84
T:Lo Glaudo
R:Bourre
M:3/8
L:1/8
N:Trs lgere
N:La Bourre 4th edition 1929, page 82
Z:Steve Mansfield www.lesession.co.uk June 2012
K:C
G |: c e z | d/ e/ f e | d/ e/ d G | 
c e z | d/ e/ f e | d2 G :| A d z | e/ d/ c B |
c/ d/ c G | c d z | e/ d/ c B | c3 |]

